blockchains/ethereum/assets/0x4da27a545c0c5B758a6BA100e3a049001de870f5/logo.svg

<svg fill="none" height="250" viewBox="0 0 250 250" width="250" xmlns="http://www.w3.org/2000/svg" xmlns:xlink="http://www.w3.org/1999/xlink"><linearGradient id="a" gradientUnits="userSpaceOnUse" x1="215.402" x2="34.9823" y1="48.9333" y2="200.738"><stop offset="0" stop-color="#b6509e"/><stop offset="1" stop-color="#2ebac6"/></linearGradient><path d="m125 246.25c66.965 0 121.25-54.285 121.25-121.25 0-66.9645-54.285-121.25-121.25-121.25-66.9645 0-121.25 54.2855-121.25 121.25 0 66.965 54.2855 121.25 121.25 121.25z" fill="url(#a)"/><g clip-rule="evenodd" fill-rule="evenodd"><g fill="#fff"><path d="m127.082 41.6641c29.93 0 54.165 24.2347 54.165 54.1652v69.9117h-108.3305v-69.9117c0-29.9305 24.2347-54.1652 54.1655-54.1652zm-21.666 39.6466c-6.2545 0-11.2801 5.0257-11.2801 11.2798s5.0256 11.2795 11.2801 11.2795c6.254 0 11.279-5.0254 11.279-11.2795s-5.025-11.2798-11.279-11.2798zm39.981 0c-6.254 0-11.279 5.0257-11.279 11.2798s5.025 11.2795 11.279 11.2795 11.28-5.0254 11.28-11.2795-5.026-11.2798-11.28-11.2798z"/><path d="m127.082 48.9219c29.93 0 54.165 18.6507 54.165 65.6681v55.171h-108.3305v-74.9383c0-28.5903 24.2347-45.9008 54.1655-45.9008zm-21.666 32.3874c-6.2545 0-11.2801 5.0257-11.2801 11.2798s5.0256 11.2799 11.2801 11.2799c6.254 0 11.279-5.0258 11.279-11.2799s-5.025-11.2798-11.279-11.2798zm39.981 0c-6.254 0-11.279 5.0257-11.279 11.2798s5.025 11.2799 11.279 11.2799 11.28-5.0258 11.28-11.2799-5.026-11.2798-11.28-11.2798z"/><path d="m127.084 54.1719c29.931 0 54.165 17.9806 54.165 63.3231v76.501c0 3.462-2.792 6.143-6.142 6.143-3.462 0-6.143-2.792-6.143-6.143v-17.199c0-3.127-2.68-5.584-6.03-5.695h-.112c-3.35 0-6.142 2.457-6.142 5.584v7.706c0 3.238-2.569 5.807-5.808 5.807s-5.807-2.569-5.807-5.807v-7.595c0-3.127-2.681-5.584-6.031-5.695h-.112c-3.35 0-6.142 2.457-6.142 5.584v1.563c0 3.239-2.569 5.808-5.808 5.808-3.238 0-5.807-2.569-5.807-5.808v-1.452c0-3.127-2.68-5.584-6.031-5.695h-.111c-3.351 0-6.143 2.457-6.143 5.584v7.706c0 3.238-2.568 5.807-5.807 5.807-3.2389 0-5.8076-2.569-5.8076-5.807v-7.595c0-3.127-2.6803-5.584-6.0308-5.695h-.1117c-3.3504 0-6.1424 2.457-6.1424 5.584v.111 17.534c0 3.239-2.5687 5.808-5.8074 5.808s-5.8074-2.569-5.8074-5.808v-95.8218c-.4467-27.5852 23.788-44.3373 53.7183-44.3373zm-21.666 27.1384c-6.254 0-11.2797 5.0257-11.2797 11.2798s5.0257 11.2799 11.2797 11.2799 11.28-5.0258 11.28-11.2799-5.026-11.2798-11.28-11.2798zm39.982 0c-6.254 0-11.28 5.0257-11.28 11.2798s5.026 11.2799 11.28 11.2799 11.28-5.0258 11.28-11.2799-5.026-11.2798-11.28-11.2798z"/><path d="m78.724 108.336c1.5635 0 2.9037 1.34 2.9037 2.904v13.066c0 1.564-1.3402 2.904-2.9037 2.904s-2.9037-1.34-2.9037-2.904v-13.066c0-1.564 1.2285-2.904 2.9037-2.904z" opacity=".2563"/><path d="m177.564 127.211c1.563 0 2.904 1.34 2.904 2.904v24.458c0 1.563-1.341 2.903-2.904 2.903-1.564 0-2.904-1.34-2.904-2.903v-24.458c0-1.564 1.34-2.904 2.904-2.904z" opacity=".2563"/><path d="m177.564 114.594c1.563 0 2.904 1.34 2.904 2.903v2.681c0 1.563-1.341 2.903-2.904 2.903-1.564 0-2.904-1.34-2.904-2.903v-2.681c0-1.675 1.34-2.903 2.904-2.903z" opacity=".2563"/><path d="m127.303 121.517c4.914 0 8.6-4.02 8.6-6.812 0-1.117-.671-2.122-1.676-2.234-1.563-.223-3.909.67-6.924.67-2.792 0-4.579-.782-6.701-.782-2.233 0-2.122 2.569-1.787 3.574.782 2.792 3.462 5.584 8.488 5.584z"/><path d="m127.415 119.167c5.025 0 8.711-3.685 8.711-6.365 0-1.006-.67-1.899-1.675-2.011-1.564-.223-4.021.67-7.036.67-2.904 0-4.579-.781-6.813-.781-2.233 0-2.122 2.457-1.787 3.35.782 2.569 3.574 5.137 8.6 5.137z"/></g><path d="m107.088 79.4141c5.696 0 10.387 5.6957 10.387 12.7316s-4.691 12.7313-10.387 12.7313c-5.695 0-10.3859-5.6954-10.3859-12.7313s4.5789-12.7316 10.3859-12.7316zm0 1.3401c-5.137 0-9.269 5.1373-9.269 11.3915 0 6.2541 4.132 11.3913 9.269 11.3913 5.138 0 9.27-5.1372 9.27-11.3913 0-6.2542-4.244-11.3915-9.27-11.3915z" fill="#d8d8d8"/><path d="m147.185 79.4141c5.696 0 10.386 5.6957 10.386 12.7316s-4.69 12.7313-10.386 12.7313-10.386-5.6954-10.386-12.7313 4.69-12.7316 10.386-12.7316zm0 1.3401c-5.137 0-9.269 5.1373-9.269 11.3915 0 6.2541 4.132 11.3913 9.269 11.3913s9.27-5.1372 9.27-11.3913c0-6.2542-4.133-11.3915-9.27-11.3915z" fill="#d8d8d8"/><g fill="#b4b4b6"><path d="m107.091 80.75c5.138 0 9.27 5.1373 9.27 11.3914v.6701.6701c0-6.3658-4.021-11.6148-9.046-11.6148-5.026 0-9.0465 5.1373-9.0465 11.6148 0 1.2285.1117 2.457.4467 3.5738-.5584-1.4519-.8934-3.1271-.8934-4.8023 0-6.3658 4.1322-11.5031 9.2692-11.5031z"/><path d="m147.184 80.75c5.137 0 9.269 5.1373 9.269 11.3914v.6701.6701c0-6.3658-4.02-11.6148-9.046-11.6148-5.025 0-9.046 5.1373-9.046 11.6148 0 1.2285.112 2.457.447 3.5738-.559-1.4519-.894-3.1271-.894-4.8023 0-6.3658 4.132-11.5031 9.27-11.5031z"/></g></g></svg>

<svg width="250" height="250" viewBox="0 0 250 250" fill="none" xmlns="http://www.w3.org/2000/svg">
<path d="M125 246.25C191.965 246.25 246.25 191.965 246.25 125C246.25 58.0355 191.965 3.75 125 3.75C58.0355 3.75 3.75 58.0355 3.75 125C3.75 191.965 58.0355 246.25 125 246.25Z" fill="url(#paint0_linear_48_12554)"/>
<path fill-rule="evenodd" clip-rule="evenodd" d="M127.082 41.6641C157.012 41.6641 181.247 65.8988 181.247 95.8293V165.741H72.9165V95.8293C72.9165 65.8988 97.1512 41.6641 127.082 41.6641ZM105.416 81.3107C99.1615 81.3107 94.1359 86.3364 94.1359 92.5905C94.1359 98.8446 99.1615 103.87 105.416 103.87C111.67 103.87 116.695 98.8446 116.695 92.5905C116.695 86.3364 111.67 81.3107 105.416 81.3107ZM145.397 81.3107C139.143 81.3107 134.118 86.3364 134.118 92.5905C134.118 98.8446 139.143 103.87 145.397 103.87C151.651 103.87 156.677 98.8446 156.677 92.5905C156.677 86.3364 151.651 81.3107 145.397 81.3107Z" fill="white"/>
<path fill-rule="evenodd" clip-rule="evenodd" d="M127.082 48.9219C157.012 48.9219 181.247 67.5726 181.247 114.59V169.761H72.9165V94.8227C72.9165 66.2324 97.1512 48.9219 127.082 48.9219ZM105.416 81.3093C99.1615 81.3093 94.1359 86.335 94.1359 92.5891C94.1359 98.8432 99.1615 103.869 105.416 103.869C111.67 103.869 116.695 98.8432 116.695 92.5891C116.695 86.335 111.67 81.3093 105.416 81.3093ZM145.397 81.3093C139.143 81.3093 134.118 86.335 134.118 92.5891C134.118 98.8432 139.143 103.869 145.397 103.869C151.651 103.869 156.677 98.8432 156.677 92.5891C156.677 86.335 151.651 81.3093 145.397 81.3093Z" fill="white"/>
<path fill-rule="evenodd" clip-rule="evenodd" d="M127.084 54.1719C157.015 54.1719 181.249 72.1525 181.249 117.495V193.996C181.249 197.458 178.457 200.139 175.107 200.139C171.645 200.139 168.964 197.347 168.964 193.996V176.797C168.964 173.67 166.284 171.213 162.934 171.102H162.822C159.472 171.102 156.68 173.559 156.68 176.686V184.392C156.68 187.63 154.111 190.199 150.872 190.199C147.633 190.199 145.065 187.63 145.065 184.392V176.797C145.065 173.67 142.384 171.213 139.034 171.102H138.922C135.572 171.102 132.78 173.559 132.78 176.686V178.249C132.78 181.488 130.211 184.057 126.972 184.057C123.734 184.057 121.165 181.488 121.165 178.249V176.797C121.165 173.67 118.485 171.213 115.134 171.102H115.023C111.672 171.102 108.88 173.559 108.88 176.686V184.392C108.88 187.63 106.312 190.199 103.073 190.199C99.8341 190.199 97.2654 187.63 97.2654 184.392V176.797C97.2654 173.67 94.5851 171.213 91.2346 171.102H91.1229C87.7725 171.102 84.9805 173.559 84.9805 176.686V176.797V194.331C84.9805 197.57 82.4118 200.139 79.1731 200.139C75.9344 200.139 73.3657 197.57 73.3657 194.331V98.5092C72.919 70.924 97.1537 54.1719 127.084 54.1719ZM105.418 81.3103C99.164 81.3103 94.1383 86.336 94.1383 92.5901C94.1383 98.8442 99.164 103.87 105.418 103.87C111.672 103.87 116.698 98.8442 116.698 92.5901C116.698 86.336 111.672 81.3103 105.418 81.3103ZM145.4 81.3103C139.146 81.3103 134.12 86.336 134.12 92.5901C134.12 98.8442 139.146 103.87 145.4 103.87C151.654 103.87 156.68 98.8442 156.68 92.5901C156.68 86.336 151.654 81.3103 145.4 81.3103Z" fill="white"/>
<path opacity="0.2563" fill-rule="evenodd" clip-rule="evenodd" d="M78.724 108.336C80.2875 108.336 81.6277 109.676 81.6277 111.24V124.306C81.6277 125.87 80.2875 127.21 78.724 127.21C77.1605 127.21 75.8203 125.87 75.8203 124.306V111.24C75.8203 109.676 77.0488 108.336 78.724 108.336Z" fill="white"/>
<path opacity="0.2563" fill-rule="evenodd" clip-rule="evenodd" d="M177.564 127.211C179.127 127.211 180.468 128.551 180.468 130.115V154.573C180.468 156.136 179.127 157.476 177.564 157.476C176 157.476 174.66 156.136 174.66 154.573V130.115C174.66 128.551 176 127.211 177.564 127.211Z" fill="white"/>
<path opacity="0.2563" fill-rule="evenodd" clip-rule="evenodd" d="M177.564 114.594C179.127 114.594 180.468 115.934 180.468 117.497V120.178C180.468 121.741 179.127 123.081 177.564 123.081C176 123.081 174.66 121.741 174.66 120.178V117.497C174.66 115.822 176 114.594 177.564 114.594Z" fill="white"/>
<path fill-rule="evenodd" clip-rule="evenodd" d="M127.303 121.517C132.217 121.517 135.903 117.497 135.903 114.705C135.903 113.588 135.232 112.583 134.227 112.471C132.664 112.248 130.318 113.141 127.303 113.141C124.511 113.141 122.724 112.359 120.602 112.359C118.369 112.359 118.48 114.928 118.815 115.933C119.597 118.725 122.277 121.517 127.303 121.517Z" fill="white"/>
<path fill-rule="evenodd" clip-rule="evenodd" d="M127.415 119.167C132.44 119.167 136.126 115.482 136.126 112.802C136.126 111.796 135.456 110.903 134.451 110.791C132.887 110.568 130.43 111.461 127.415 111.461C124.511 111.461 122.836 110.68 120.602 110.68C118.369 110.68 118.48 113.137 118.815 114.03C119.597 116.599 122.389 119.167 127.415 119.167Z" fill="white"/>
<path fill-rule="evenodd" clip-rule="evenodd" d="M107.088 79.4141C112.784 79.4141 117.475 85.1098 117.475 92.1457C117.475 99.1816 112.784 104.877 107.088 104.877C101.393 104.877 96.7021 99.1816 96.7021 92.1457C96.7021 85.1098 101.281 79.4141 107.088 79.4141ZM107.088 80.7542C101.951 80.7542 97.819 85.8915 97.819 92.1457C97.819 98.3998 101.951 103.537 107.088 103.537C112.226 103.537 116.358 98.3998 116.358 92.1457C116.358 85.8915 112.114 80.7542 107.088 80.7542Z" fill="#D8D8D8"/>
<path fill-rule="evenodd" clip-rule="evenodd" d="M147.185 79.4141C152.881 79.4141 157.571 85.1098 157.571 92.1457C157.571 99.1816 152.881 104.877 147.185 104.877C141.489 104.877 136.799 99.1816 136.799 92.1457C136.799 85.1098 141.489 79.4141 147.185 79.4141ZM147.185 80.7542C142.048 80.7542 137.916 85.8915 137.916 92.1457C137.916 98.3998 142.048 103.537 147.185 103.537C152.322 103.537 156.455 98.3998 156.455 92.1457C156.455 85.8915 152.322 80.7542 147.185 80.7542Z" fill="#D8D8D8"/>
<path fill-rule="evenodd" clip-rule="evenodd" d="M107.091 80.75C112.229 80.75 116.361 85.8873 116.361 92.1414C116.361 92.3648 116.361 92.5882 116.361 92.8115V93.4816C116.361 87.1158 112.34 81.8668 107.315 81.8668C102.289 81.8668 98.2685 87.0041 98.2685 93.4816C98.2685 94.7101 98.3802 95.9386 98.7152 97.0554C98.1568 95.6035 97.8218 93.9283 97.8218 92.2531C97.8218 85.8873 101.954 80.75 107.091 80.75Z" fill="#B4B4B6"/>
<path fill-rule="evenodd" clip-rule="evenodd" d="M147.184 80.75C152.321 80.75 156.453 85.8873 156.453 92.1414C156.453 92.3648 156.453 92.5882 156.453 92.8115V93.4816C156.453 87.1158 152.433 81.8668 147.407 81.8668C142.382 81.8668 138.361 87.0041 138.361 93.4816C138.361 94.7101 138.473 95.9386 138.808 97.0554C138.249 95.6035 137.914 93.9283 137.914 92.2531C137.914 85.8873 142.046 80.75 147.184 80.75Z" fill="#B4B4B6"/>
<defs>
<linearGradient id="paint0_linear_48_12554" x1="215.402" y1="48.9333" x2="34.9823" y2="200.738" gradientUnits="userSpaceOnUse">
<stop stop-color="#B6509E"/>
<stop offset="1" stop-color="#2EBAC6"/>
</linearGradient>
</defs>
</svg>
